img/pajarito.svg

<svg fill="none" height="272" viewBox="0 0 271 272" width="271" xmlns="http://www.w3.org/2000/svg"><g fill="#8f3292"><path d="m88.37 226.66c-5.17 0-30.57-.89-53.38-16.52 20.03 28.79 50.06 47.13 83.52 47.13h.04c32.81 0 53.65-18.49 65.34-33.96 15.05-19.92 20.49-41.57 20.49-51.26v-45.74c.04-.93.31-5.25.77-9.57h-26.01c-8.57 0-36.59 4.59-36.59 63.45h-.31c-1 10.73-5.17 20.34-12.35 28.1-12.12 13.08-29.56 18.06-40.8 18.33-.03.04-.3.04-.72.04zm99-100.42c4.44 0 8.03 3.59 8.03 8.03s-3.59 8.03-8.03 8.03-8.03-3.59-8.03-8.03 3.59-8.03 8.03-8.03z"/><path d="m102.26 135.89h-92.54998c.38998 5.79 1.03998 11.46 2.04998 16.98h61.06c3.2 0 5.79 2.59 5.79 5.79s-2.59 5.79-5.79 5.79h-58.32c2.08 5.71 4.59 10.77 7.41 15.25h50.91c3.2 0 5.79 2.59 5.79 5.79s-2.59 5.79-5.79 5.79h-41.88c23.23 24.2 55.93 23.85 58.01 23.81 9.69-.23 23.51-4.86 32.58-14.63 6.87-7.41 10.04-16.71 9.49-27.63-1.86-35.71-26.02-36.94-28.76-36.94z"/><path d="m187.67 134.27c0-.19-.15-.31-.31-.31-.19 0-.31.15-.31.31.01.34.62.34.62 0z"/><path d="m135.3.799988c-70.79 0-128.83003 54.300012-134.890027 123.510012h101.890027c.42 0 21.58.27 33.12 20.49 10.58-37.28 37.4-39.64 43.85-39.64h34.66c-.19-.08-.42-.15-.62-.31-2.97-2.12-29.02-21-30.22-35.12-.58-6.64 3.24-12.16 9.76-14.09 6.64-1.93 15.94.19 22.69 8.65 6.79-8.49 16.06-10.61 22.69-8.65 6.48 1.89 10.31 7.41 9.76 14.09-1.2 14.13-27.25 33.04-30.22 35.12-.19.12-.39.19-.62.31h2.24l-1.78 7.18c-.73 2.89-1.35 10.31-1.58 14.28v45.43c0 13.47-7.14 37.48-22.85 58.24-13.28 17.6-37.01 38.56-74.57 38.56h-.04c-5.98 0-11.89-.54-17.64-1.58 11 2.89 22.54 4.44 34.43 4.44 74.8 0 135.47-60.63 135.47-135.47s-60.73-135.440012-135.53-135.440012z"/><path d="m240.24 69.08c.35-4.05-2.51-5.48-4.25-6.02-5.09-1.51-12.62 1.51-17.14 10.11-1.35 2.55-5.52 2.55-6.83 0-3.78-7.22-9.65-10.46-14.47-10.46-.93 0-1.81.12-2.66.35-1.74.5-4.59 1.97-4.25 6.02.66 7.41 14.71 20.34 24.78 27.87 10.12-7.57 24.21-20.46 24.82-27.87z"/></g></svg>

<svg width="271" height="272" viewBox="0 0 271 272" fill="none" xmlns="http://www.w3.org/2000/svg">
<path d="M88.37 226.66C83.2 226.66 57.8 225.77 34.99 210.14C55.02 238.93 85.05 257.27 118.51 257.27C118.51 257.27 118.51 257.27 118.55 257.27C151.36 257.27 172.2 238.78 183.89 223.31C198.94 203.39 204.38 181.74 204.38 172.05V126.31C204.42 125.38 204.69 121.06 205.15 116.74H179.14C170.57 116.74 142.55 121.33 142.55 180.19H142.24C141.24 190.92 137.07 200.53 129.89 208.29C117.77 221.37 100.33 226.35 89.09 226.62C89.06 226.66 88.79 226.66 88.37 226.66ZM187.37 126.24C191.81 126.24 195.4 129.83 195.4 134.27C195.4 138.71 191.81 142.3 187.37 142.3C182.93 142.3 179.34 138.71 179.34 134.27C179.34 129.83 182.93 126.24 187.37 126.24Z" fill="#8F3292"/>
<path d="M102.26 135.89H9.71002C10.1 141.68 10.75 147.35 11.76 152.87H72.82C76.02 152.87 78.61 155.46 78.61 158.66C78.61 161.86 76.02 164.45 72.82 164.45H14.5C16.58 170.16 19.09 175.22 21.91 179.7H72.82C76.02 179.7 78.61 182.29 78.61 185.49C78.61 188.69 76.02 191.28 72.82 191.28H30.94C54.17 215.48 86.87 215.13 88.95 215.09C98.64 214.86 112.46 210.23 121.53 200.46C128.4 193.05 131.57 183.75 131.02 172.83C129.16 137.12 105 135.89 102.26 135.89Z" fill="#8F3292"/>
<path d="M187.67 134.27C187.67 134.08 187.52 133.96 187.36 133.96C187.17 133.96 187.05 134.11 187.05 134.27C187.06 134.61 187.67 134.61 187.67 134.27Z" fill="#8F3292"/>
<path d="M135.3 0.799988C64.51 0.799988 6.46997 55.1 0.409973 124.31H102.3C102.72 124.31 123.88 124.58 135.42 144.8C146 107.52 172.82 105.16 179.27 105.16H213.93C213.74 105.08 213.51 105.01 213.31 104.85C210.34 102.73 184.29 83.85 183.09 69.73C182.51 63.09 186.33 57.57 192.85 55.64C199.49 53.71 208.79 55.83 215.54 64.29C222.33 55.8 231.6 53.68 238.23 55.64C244.71 57.53 248.54 63.05 247.99 69.73C246.79 83.86 220.74 102.77 217.77 104.85C217.58 104.97 217.38 105.04 217.15 105.16H219.39L217.61 112.34C216.88 115.23 216.26 122.65 216.03 126.62V172.05C216.03 185.52 208.89 209.53 193.18 230.29C179.9 247.89 156.17 268.85 118.61 268.85H118.57C112.59 268.85 106.68 268.31 100.93 267.27C111.93 270.16 123.47 271.71 135.36 271.71C210.16 271.71 270.83 211.08 270.83 136.24C270.83 61.4 210.1 0.799988 135.3 0.799988Z" fill="#8F3292"/>
<path d="M240.24 69.08C240.59 65.03 237.73 63.6 235.99 63.06C230.9 61.55 223.37 64.57 218.85 73.17C217.5 75.72 213.33 75.72 212.02 73.17C208.24 65.95 202.37 62.71 197.55 62.71C196.62 62.71 195.74 62.83 194.89 63.06C193.15 63.56 190.3 65.03 190.64 69.08C191.3 76.49 205.35 89.42 215.42 96.95C225.54 89.38 239.63 76.49 240.24 69.08Z" fill="#8F3292"/>
</svg>
